X:7
T:Rosline Castle,2voices. JGi.007
S:Joshua Gibbons MS,1823,Tealby,Lincs.
M:C
L:1/8
R:Air
Q:1/4=90
O:Tealby,Lincolnshire
Z:VMP/R.Greig, 2009
K:Dm
[V:1]|:F>E|D2 A>B A2G>A|{GA}BAGF E2F>E|D2d>e {de}f2e>d|cdec A2GA|
[V:2]|:z2|z2FGF2EF|GFED ^C2z2|z2FGA2GF|E2A2A,2DE|
[V:1]BAGF E2F>G|AFEDH^c2d>e|fde^c dA G/2B/2A/2G/2|F2 E>D D2:|
[V:2]GFED C2DE|FDGFHA2FG|AFGD FD E2|A2A,2D2:|
[V:1]A2|d^cde{de}f2e>d|a2gf e2d^c|dAde {ef}f2e>d|a>g f/2a/2g/2f/2 e2GA|
[V:2]E2|F2FAd2A2|fed2FEz2|FEFAd2A2|fe d/2e/2f/2e/2A2EF|
[V:1]BAGF E2FG|AFEDH^c2de|fde^c dA G/2B/2A/2G/2|F2 E>D D2:|
[V:2]GFEDC2DE|FDGFHA2FG|AFGE FDE2|A2A,2D2:|

